X: 1
T:Marcha procesional de San Benito
M:2/4
L:1/16
Q:100
C:Trad.
R:Marcha
A:Galicia
N:Repertorio básic
K:D
FE |: D4 {A}D3F | A8 | B6 cd | A4 F3 {d}F | {d}F4 (3D2E2F2| 
E8| A3G F3E | D4 {A}D3{E}D | {C}D6 FE
D6 FE 
| D4 {A}D3F | A8| B6 cd | A4 F4 | {d}F4 (3E2F2E2 | D4 {d}D3{E}D |
1
 {C}D6 FE :|2
D8 |:
F8 | D4 (3E2D2E2 | F8 | D4 {A}D4 | E8 | C4 {A}(3C2D2E2 | F4
(3G2F2E2| D8 | F8 | D4 {A}(3D2E2F2| G8 | 
E4 {d}(3E2F2G2| F4 (3D2E2F2| E4 (3C2D2E2| D4 {A}D3{E}D |1 {C}D8 :|2 D6
FE ||

